X:12
T:Maiden's Choice. THO2.012, The
O:London
M:6/8
L:1/8
Q:3/8=120
B:Thompson's Compleat Coll. of 200 Favourite Country Dances, vol.2,1765
Z:Transcribed and edited by Fynn Titford-Mock, 2007
Z:abc's:AK/Fiddler's Companion/VMP 2009
K:D
D|D2F F2A|dfe d2B|Add Gdd|Fd[Ff] [Ee][Dd][Cc]|
D2F F2A|dfee2d|cBA EF^G|A[Ee][Cc] [A,2A2]:|
|:A|A2c c2e|afg afg|A2c c2e|gef g2f|
fed cBA|BAG FED|[Cc][Dd][Ee] [A,A][B,A][Cc]|[D2d] [Dd] [D2d2]:|

